images/3234220.svg

<?xml version="1.0" encoding="UTF-8"?>
<svg xmlns="http://www.w3.org/2000/svg" xmlns:xlink="http://www.w3.org/1999/xlink" width="300pt" height="300pt" viewBox="0 0 300 300" version="1.1">
<defs>
<g>
<symbol overflow="visible" id="glyph0-0">
<path style="stroke:none;" d="M 0.453125 1.59375 L 0.453125 -6.34375 L 4.953125 -6.34375 L 4.953125 1.59375 Z M 0.953125 1.09375 L 4.453125 1.09375 L 4.453125 -5.84375 L 0.953125 -5.84375 Z M 0.953125 1.09375 "/>
</symbol>
<symbol overflow="visible" id="glyph0-1">
<path style="stroke:none;" d="M 0.890625 -6.5625 L 2.078125 -6.5625 L 4.984375 -1.078125 L 4.984375 -6.5625 L 5.84375 -6.5625 L 5.84375 0 L 4.65625 0 L 1.75 -5.484375 L 1.75 0 L 0.890625 0 Z M 0.890625 -6.5625 "/>
</symbol>
<symbol overflow="visible" id="glyph0-2">
<path style="stroke:none;" d="M 3.546875 -5.953125 C 2.898438 -5.953125 2.382812 -5.710938 2 -5.234375 C 1.625 -4.753906 1.4375 -4.101562 1.4375 -3.28125 C 1.4375 -2.445312 1.625 -1.789062 2 -1.3125 C 2.382812 -0.832031 2.898438 -0.59375 3.546875 -0.59375 C 4.191406 -0.59375 4.703125 -0.832031 5.078125 -1.3125 C 5.453125 -1.789062 5.640625 -2.445312 5.640625 -3.28125 C 5.640625 -4.101562 5.453125 -4.753906 5.078125 -5.234375 C 4.703125 -5.710938 4.191406 -5.953125 3.546875 -5.953125 Z M 3.546875 -6.6875 C 4.460938 -6.6875 5.195312 -6.375 5.75 -5.75 C 6.300781 -5.132812 6.578125 -4.3125 6.578125 -3.28125 C 6.578125 -2.238281 6.300781 -1.410156 5.75 -0.796875 C 5.195312 -0.179688 4.460938 0.125 3.546875 0.125 C 2.617188 0.125 1.878906 -0.179688 1.328125 -0.796875 C 0.773438 -1.410156 0.5 -2.238281 0.5 -3.28125 C 0.5 -4.3125 0.773438 -5.132812 1.328125 -5.75 C 1.878906 -6.375 2.617188 -6.6875 3.546875 -6.6875 Z M 3.546875 -6.6875 "/>
</symbol>
</g>
</defs>
<g id="surface45245">
<rect x="0" y="0" width="300" height="300" style="fill:rgb(100%,100%,100%);fill-opacity:1;stroke:none;"/>
<path style="fill:none;stroke-width:1.2;stroke-linecap:butt;stroke-linejoin:miter;stroke:rgb(0%,0%,0%);stroke-opacity:1;stroke-miterlimit:10;" d="M 35.25 153.800781 L 47.199219 150.128906 "/>
<path style="fill:none;stroke-width:1.2;stroke-linecap:butt;stroke-linejoin:miter;stroke:rgb(0%,0%,100%);stroke-opacity:1;stroke-miterlimit:10;" d="M 47.199219 150.128906 L 59.144531 146.457031 "/>
<path style="fill:none;stroke-width:1.2;stroke-linecap:butt;stroke-linejoin:miter;stroke:rgb(0%,0%,100%);stroke-opacity:1;stroke-miterlimit:10;" d="M 59.144531 146.457031 L 69.140625 153.964844 "/>
<path style="fill:none;stroke-width:1.2;stroke-linecap:butt;stroke-linejoin:miter;stroke:rgb(0%,0%,0%);stroke-opacity:1;stroke-miterlimit:10;" d="M 69.140625 153.964844 L 79.132812 161.472656 "/>
<path style="fill:none;stroke-width:1.2;stroke-linecap:butt;stroke-linejoin:miter;stroke:rgb(0%,0%,0%);stroke-opacity:1;stroke-miterlimit:10;" d="M 67.25 122.808594 L 63.199219 134.632812 "/>
<path style="fill:none;stroke-width:1.2;stroke-linecap:butt;stroke-linejoin:miter;stroke:rgb(0%,0%,100%);stroke-opacity:1;stroke-miterlimit:10;" d="M 63.199219 134.632812 L 59.144531 146.457031 "/>
<path style=" stroke:none;fill-rule:nonzero;fill:rgb(100%,100%,100%);fill-opacity:1;" d="M 56.144531 140.957031 L 63.144531 140.957031 L 63.144531 151.957031 L 56.144531 151.957031 Z M 56.144531 140.957031 "/>
<g style="fill:rgb(0%,0%,100%);fill-opacity:1;">
  <use xlink:href="#glyph0-1" x="56.144531" y="149.620117"/>
</g>
<path style="fill:none;stroke-width:1.2;stroke-linecap:butt;stroke-linejoin:miter;stroke:rgb(0%,0%,0%);stroke-opacity:1;stroke-miterlimit:10;" d="M 79.132812 161.472656 L 99.589844 147.105469 "/>
<path style="fill:none;stroke-width:1.2;stroke-linecap:butt;stroke-linejoin:miter;stroke:rgb(0%,0%,0%);stroke-opacity:1;stroke-miterlimit:10;" d="M 77.796875 155.222656 L 94.164062 143.730469 "/>
<path style="fill:none;stroke-width:1.2;stroke-linecap:butt;stroke-linejoin:miter;stroke:rgb(0%,0%,0%);stroke-opacity:1;stroke-miterlimit:10;" d="M 99.589844 147.105469 L 92.246094 123.210938 "/>
<path style="fill:none;stroke-width:1.2;stroke-linecap:butt;stroke-linejoin:miter;stroke:rgb(0%,0%,0%);stroke-opacity:1;stroke-miterlimit:10;" d="M 99.589844 147.105469 L 123.238281 155.210938 "/>
<path style="fill:none;stroke-width:1.2;stroke-linecap:butt;stroke-linejoin:miter;stroke:rgb(0%,0%,0%);stroke-opacity:1;stroke-miterlimit:10;" d="M 92.246094 123.210938 L 105.089844 101.761719 "/>
<path style="fill:none;stroke-width:1.2;stroke-linecap:butt;stroke-linejoin:miter;stroke:rgb(0%,0%,0%);stroke-opacity:1;stroke-miterlimit:10;" d="M 88.484375 118.042969 L 98.757812 100.886719 "/>
<path style="fill:none;stroke-width:1.2;stroke-linecap:butt;stroke-linejoin:miter;stroke:rgb(0%,0%,0%);stroke-opacity:1;stroke-miterlimit:10;" d="M 67.25 122.808594 L 92.246094 123.210938 "/>
<path style="fill:none;stroke-width:1.2;stroke-linecap:butt;stroke-linejoin:miter;stroke:rgb(0%,0%,0%);stroke-opacity:1;stroke-miterlimit:10;" d="M 105.089844 101.761719 L 92.9375 79.917969 "/>
<path style="fill:none;stroke-width:1.2;stroke-linecap:butt;stroke-linejoin:miter;stroke:rgb(0%,0%,0%);stroke-opacity:1;stroke-miterlimit:10;" d="M 92.9375 79.917969 L 67.941406 79.515625 "/>
<path style="fill:none;stroke-width:1.2;stroke-linecap:butt;stroke-linejoin:miter;stroke:rgb(0%,0%,0%);stroke-opacity:1;stroke-miterlimit:10;" d="M 90.34375 85.757812 L 70.347656 85.4375 "/>
<path style="fill:none;stroke-width:1.2;stroke-linecap:butt;stroke-linejoin:miter;stroke:rgb(0%,0%,0%);stroke-opacity:1;stroke-miterlimit:10;" d="M 67.941406 79.515625 L 55.097656 100.960938 "/>
<path style="fill:none;stroke-width:1.2;stroke-linecap:butt;stroke-linejoin:miter;stroke:rgb(0%,0%,0%);stroke-opacity:1;stroke-miterlimit:10;" d="M 55.097656 100.960938 L 67.25 122.808594 "/>
<path style="fill:none;stroke-width:1.2;stroke-linecap:butt;stroke-linejoin:miter;stroke:rgb(0%,0%,0%);stroke-opacity:1;stroke-miterlimit:10;" d="M 61.453125 100.289062 L 71.175781 117.765625 "/>
<path style="fill:none;stroke-width:1.2;stroke-linecap:butt;stroke-linejoin:miter;stroke:rgb(0%,0%,0%);stroke-opacity:1;stroke-miterlimit:10;" d="M 123.238281 155.210938 L 125.640625 167.476562 "/>
<path style="fill:none;stroke-width:1.2;stroke-linecap:butt;stroke-linejoin:miter;stroke:rgb(0%,0%,100%);stroke-opacity:1;stroke-miterlimit:10;" d="M 125.640625 167.476562 L 128.042969 179.742188 "/>
<path style="fill:none;stroke-width:1.2;stroke-linecap:butt;stroke-linejoin:miter;stroke:rgb(0%,0%,0%);stroke-opacity:1;stroke-miterlimit:10;" d="M 129.492188 156.53125 L 131.414062 166.34375 "/>
<path style="fill:none;stroke-width:1.2;stroke-linecap:butt;stroke-linejoin:miter;stroke:rgb(0%,0%,100%);stroke-opacity:1;stroke-miterlimit:10;" d="M 131.414062 166.34375 L 133.335938 176.160156 "/>
<path style="fill:none;stroke-width:1.2;stroke-linecap:butt;stroke-linejoin:miter;stroke:rgb(0%,0%,0%);stroke-opacity:1;stroke-miterlimit:10;" d="M 142.082031 138.78125 L 123.238281 155.210938 "/>
<path style="fill:none;stroke-width:1.2;stroke-linecap:butt;stroke-linejoin:miter;stroke:rgb(0%,0%,100%);stroke-opacity:1;stroke-miterlimit:10;" d="M 128.042969 179.742188 L 139.867188 183.792969 "/>
<path style="fill:none;stroke-width:1.2;stroke-linecap:butt;stroke-linejoin:miter;stroke:rgb(0%,0%,0%);stroke-opacity:1;stroke-miterlimit:10;" d="M 139.867188 183.792969 L 151.691406 187.847656 "/>
<path style=" stroke:none;fill-rule:nonzero;fill:rgb(100%,100%,100%);fill-opacity:1;" d="M 125.042969 174.242188 L 132.042969 174.242188 L 132.042969 185.242188 L 125.042969 185.242188 Z M 125.042969 174.242188 "/>
<g style="fill:rgb(0%,0%,100%);fill-opacity:1;">
  <use xlink:href="#glyph0-1" x="125.042969" y="182.905273"/>
</g>
<path style="fill:none;stroke-width:1.2;stroke-linecap:butt;stroke-linejoin:miter;stroke:rgb(0%,0%,0%);stroke-opacity:1;stroke-miterlimit:10;" d="M 151.691406 187.847656 L 156.496094 212.378906 "/>
<path style="fill:none;stroke-width:1.2;stroke-linecap:butt;stroke-linejoin:miter;stroke:rgb(0%,0%,0%);stroke-opacity:1;stroke-miterlimit:10;" d="M 157.945312 189.167969 L 161.789062 208.796875 "/>
<path style="fill:none;stroke-width:1.2;stroke-linecap:butt;stroke-linejoin:miter;stroke:rgb(0%,0%,0%);stroke-opacity:1;stroke-miterlimit:10;" d="M 170.535156 171.417969 L 151.691406 187.847656 "/>
<path style="fill:none;stroke-width:1.2;stroke-linecap:butt;stroke-linejoin:miter;stroke:rgb(0%,0%,0%);stroke-opacity:1;stroke-miterlimit:10;" d="M 156.496094 212.378906 L 168.320312 216.433594 "/>
<path style="fill:none;stroke-width:1.2;stroke-linecap:butt;stroke-linejoin:miter;stroke:rgb(0%,0%,100%);stroke-opacity:1;stroke-miterlimit:10;" d="M 168.320312 216.433594 L 180.144531 220.484375 "/>
<path style="fill:none;stroke-width:1.2;stroke-linecap:butt;stroke-linejoin:miter;stroke:rgb(0%,0%,100%);stroke-opacity:1;stroke-miterlimit:10;" d="M 180.144531 220.484375 L 189.566406 212.269531 "/>
<path style="fill:none;stroke-width:1.2;stroke-linecap:butt;stroke-linejoin:miter;stroke:rgb(0%,0%,0%);stroke-opacity:1;stroke-miterlimit:10;" d="M 189.566406 212.269531 L 198.988281 204.054688 "/>
<path style="fill:none;stroke-width:1.2;stroke-linecap:butt;stroke-linejoin:miter;stroke:rgb(0%,0%,100%);stroke-opacity:1;stroke-miterlimit:10;" d="M 178.164062 214.40625 L 185.703125 207.835938 "/>
<path style="fill:none;stroke-width:1.2;stroke-linecap:butt;stroke-linejoin:miter;stroke:rgb(0%,0%,0%);stroke-opacity:1;stroke-miterlimit:10;" d="M 185.703125 207.835938 L 193.238281 201.265625 "/>
<path style=" stroke:none;fill-rule:nonzero;fill:rgb(100%,100%,100%);fill-opacity:1;" d="M 177.144531 214.984375 L 184.144531 214.984375 L 184.144531 225.984375 L 177.144531 225.984375 Z M 177.144531 214.984375 "/>
<g style="fill:rgb(0%,0%,100%);fill-opacity:1;">
  <use xlink:href="#glyph0-1" x="177.144531" y="223.647461"/>
</g>
<path style="fill:none;stroke-width:1.2;stroke-linecap:butt;stroke-linejoin:miter;stroke:rgb(0%,0%,0%);stroke-opacity:1;stroke-miterlimit:10;" d="M 198.988281 204.054688 L 196.585938 191.789062 "/>
<path style="fill:none;stroke-width:1.2;stroke-linecap:butt;stroke-linejoin:miter;stroke:rgb(0%,0%,100%);stroke-opacity:1;stroke-miterlimit:10;" d="M 196.585938 191.789062 L 194.183594 179.523438 "/>
<path style="fill:none;stroke-width:1.2;stroke-linecap:butt;stroke-linejoin:miter;stroke:rgb(0%,0%,100%);stroke-opacity:1;stroke-miterlimit:10;" d="M 194.183594 179.523438 L 182.359375 175.472656 "/>
<path style="fill:none;stroke-width:1.2;stroke-linecap:butt;stroke-linejoin:miter;stroke:rgb(0%,0%,0%);stroke-opacity:1;stroke-miterlimit:10;" d="M 182.359375 175.472656 L 170.535156 171.417969 "/>
<path style="fill:none;stroke-width:1.2;stroke-linecap:butt;stroke-linejoin:miter;stroke:rgb(0%,0%,100%);stroke-opacity:1;stroke-miterlimit:10;" d="M 189.910156 184.277344 L 180.453125 181.035156 "/>
<path style="fill:none;stroke-width:1.2;stroke-linecap:butt;stroke-linejoin:miter;stroke:rgb(0%,0%,0%);stroke-opacity:1;stroke-miterlimit:10;" d="M 180.453125 181.035156 L 170.992188 177.792969 "/>
<path style=" stroke:none;fill-rule:nonzero;fill:rgb(100%,100%,100%);fill-opacity:1;" d="M 191.183594 174.023438 L 198.183594 174.023438 L 198.183594 185.023438 L 191.183594 185.023438 Z M 191.183594 174.023438 "/>
<g style="fill:rgb(0%,0%,100%);fill-opacity:1;">
  <use xlink:href="#glyph0-1" x="191.183594" y="182.686523"/>
</g>
<path style="fill:none;stroke-width:1.2;stroke-linecap:butt;stroke-linejoin:miter;stroke:rgb(0%,0%,0%);stroke-opacity:1;stroke-miterlimit:10;" d="M 170.535156 171.417969 L 168.132812 159.152344 "/>
<path style="fill:none;stroke-width:1.2;stroke-linecap:butt;stroke-linejoin:miter;stroke:rgb(0%,0%,100%);stroke-opacity:1;stroke-miterlimit:10;" d="M 168.132812 159.152344 L 165.730469 146.886719 "/>
<path style="fill:none;stroke-width:1.2;stroke-linecap:butt;stroke-linejoin:miter;stroke:rgb(0%,0%,100%);stroke-opacity:1;stroke-miterlimit:10;" d="M 165.730469 146.886719 L 153.90625 142.835938 "/>
<path style="fill:none;stroke-width:1.2;stroke-linecap:butt;stroke-linejoin:miter;stroke:rgb(0%,0%,0%);stroke-opacity:1;stroke-miterlimit:10;" d="M 153.90625 142.835938 L 142.082031 138.78125 "/>
<path style="fill:none;stroke-width:1.2;stroke-linecap:butt;stroke-linejoin:miter;stroke:rgb(0%,0%,100%);stroke-opacity:1;stroke-miterlimit:10;" d="M 165.730469 146.886719 L 175.152344 138.671875 "/>
<path style="fill:none;stroke-width:1.2;stroke-linecap:butt;stroke-linejoin:miter;stroke:rgb(0%,0%,0%);stroke-opacity:1;stroke-miterlimit:10;" d="M 175.152344 138.671875 L 184.574219 130.457031 "/>
<path style=" stroke:none;fill-rule:nonzero;fill:rgb(100%,100%,100%);fill-opacity:1;" d="M 162.730469 141.386719 L 169.730469 141.386719 L 169.730469 152.386719 L 162.730469 152.386719 Z M 162.730469 141.386719 "/>
<g style="fill:rgb(0%,0%,100%);fill-opacity:1;">
  <use xlink:href="#glyph0-1" x="162.730469" y="150.049805"/>
</g>
<path style="fill:none;stroke-width:1.2;stroke-linecap:butt;stroke-linejoin:miter;stroke:rgb(0%,0%,0%);stroke-opacity:1;stroke-miterlimit:10;" d="M 144.96875 138.214844 L 142.5625 125.949219 "/>
<path style="fill:none;stroke-width:1.2;stroke-linecap:butt;stroke-linejoin:miter;stroke:rgb(100%,0%,0%);stroke-opacity:1;stroke-miterlimit:10;" d="M 142.5625 125.949219 L 140.160156 113.683594 "/>
<path style="fill:none;stroke-width:1.2;stroke-linecap:butt;stroke-linejoin:miter;stroke:rgb(0%,0%,0%);stroke-opacity:1;stroke-miterlimit:10;" d="M 139.195312 139.347656 L 136.792969 127.082031 "/>
<path style="fill:none;stroke-width:1.2;stroke-linecap:butt;stroke-linejoin:miter;stroke:rgb(100%,0%,0%);stroke-opacity:1;stroke-miterlimit:10;" d="M 136.792969 127.082031 L 134.390625 114.816406 "/>
<path style=" stroke:none;fill-rule:nonzero;fill:rgb(100%,100%,100%);fill-opacity:1;" d="M 133.277344 108.75 L 141.277344 108.75 L 141.277344 119.75 L 133.277344 119.75 Z M 133.277344 108.75 "/>
<g style="fill:rgb(100%,0%,0%);fill-opacity:1;">
  <use xlink:href="#glyph0-2" x="133.277344" y="117.413086"/>
</g>
<path style="fill:none;stroke-width:1.2;stroke-linecap:butt;stroke-linejoin:miter;stroke:rgb(0%,0%,0%);stroke-opacity:1;stroke-miterlimit:10;" d="M 184.574219 130.457031 L 208.222656 138.5625 "/>
<path style="fill:none;stroke-width:1.2;stroke-linecap:butt;stroke-linejoin:miter;stroke:rgb(0%,0%,0%);stroke-opacity:1;stroke-miterlimit:10;" d="M 188.84375 125.703125 L 207.761719 132.1875 "/>
<path style="fill:none;stroke-width:1.2;stroke-linecap:butt;stroke-linejoin:miter;stroke:rgb(0%,0%,0%);stroke-opacity:1;stroke-miterlimit:10;" d="M 179.765625 105.925781 L 184.574219 130.457031 "/>
<path style="fill:none;stroke-width:1.2;stroke-linecap:butt;stroke-linejoin:miter;stroke:rgb(0%,0%,0%);stroke-opacity:1;stroke-miterlimit:10;" d="M 208.222656 138.5625 L 227.0625 122.136719 "/>
<path style="fill:none;stroke-width:1.2;stroke-linecap:butt;stroke-linejoin:miter;stroke:rgb(0%,0%,0%);stroke-opacity:1;stroke-miterlimit:10;" d="M 227.0625 122.136719 L 222.257812 97.601562 "/>
<path style="fill:none;stroke-width:1.2;stroke-linecap:butt;stroke-linejoin:miter;stroke:rgb(0%,0%,0%);stroke-opacity:1;stroke-miterlimit:10;" d="M 220.8125 120.8125 L 216.964844 101.1875 "/>
<path style="fill:none;stroke-width:1.2;stroke-linecap:butt;stroke-linejoin:miter;stroke:rgb(0%,0%,0%);stroke-opacity:1;stroke-miterlimit:10;" d="M 222.257812 97.601562 L 198.609375 89.5 "/>
<path style="fill:none;stroke-width:1.2;stroke-linecap:butt;stroke-linejoin:miter;stroke:rgb(0%,0%,0%);stroke-opacity:1;stroke-miterlimit:10;" d="M 222.257812 97.601562 L 231.679688 89.386719 "/>
<path style="fill:none;stroke-width:1.2;stroke-linecap:butt;stroke-linejoin:miter;stroke:rgb(100%,0%,0%);stroke-opacity:1;stroke-miterlimit:10;" d="M 231.679688 89.386719 L 241.101562 81.175781 "/>
<path style="fill:none;stroke-width:1.2;stroke-linecap:butt;stroke-linejoin:miter;stroke:rgb(0%,0%,0%);stroke-opacity:1;stroke-miterlimit:10;" d="M 198.609375 89.5 L 179.765625 105.925781 "/>
<path style="fill:none;stroke-width:1.2;stroke-linecap:butt;stroke-linejoin:miter;stroke:rgb(0%,0%,0%);stroke-opacity:1;stroke-miterlimit:10;" d="M 200.589844 95.574219 L 185.515625 108.71875 "/>
<path style="fill:none;stroke-width:1.2;stroke-linecap:butt;stroke-linejoin:miter;stroke:rgb(100%,0%,0%);stroke-opacity:1;stroke-miterlimit:10;" d="M 241.101562 81.175781 L 252.925781 85.226562 "/>
<path style="fill:none;stroke-width:1.2;stroke-linecap:butt;stroke-linejoin:miter;stroke:rgb(0%,0%,0%);stroke-opacity:1;stroke-miterlimit:10;" d="M 252.925781 85.226562 L 264.75 89.277344 "/>
<path style=" stroke:none;fill-rule:nonzero;fill:rgb(100%,100%,100%);fill-opacity:1;" d="M 237.101562 75.675781 L 245.101562 75.675781 L 245.101562 86.675781 L 237.101562 86.675781 Z M 237.101562 75.675781 "/>
<g style="fill:rgb(100%,0%,0%);fill-opacity:1;">
  <use xlink:href="#glyph0-2" x="237.101562" y="84.338867"/>
</g>
</g>
</svg>

<svg xmlns="http://www.w3.org/2000/svg" xmlns:xlink="http://www.w3.org/1999/xlink" width="300pt" height="300pt" viewBox="0 0 300 300"><defs><symbol overflow="visible"><path d="M.453 1.594v-7.938h4.5v7.938zm.5-.5h3.5v-6.938h-3.5zm0 0"/></symbol><symbol overflow="visible" id="a"><path d="M.89-6.563H2.08l2.906 5.485v-5.484h.86V0H4.656L1.75-5.484V0H.89zm0 0"/></symbol><symbol overflow="visible" id="b"><path d="M3.547-5.953c-.65 0-1.164.242-1.547.72-.375.48-.563 1.13-.563 1.952 0 .835.188 1.49.563 1.967.383.48.898.72 1.547.72.644 0 1.156-.24 1.53-.72.376-.476.564-1.132.564-1.968 0-.822-.187-1.474-.562-1.954-.375-.477-.887-.72-1.53-.72zm0-.734c.914 0 1.648.312 2.203.937.55.617.828 1.438.828 2.47 0 1.042-.277 1.87-.828 2.483-.555.617-1.29.922-2.203.922-.93 0-1.668-.305-2.22-.922C.774-1.41.5-2.237.5-3.28c0-1.033.273-1.853.828-2.47.55-.625 1.29-.938 2.22-.938zm0 0"/></symbol></defs><g><path fill="#fff" d="M0 0h300v300H0z"/><path d="M35.25 153.8l11.95-3.67" stroke-width="1.2" stroke="#000" stroke-miterlimit="10" fill="none"/><path d="M47.2 150.13l11.945-3.673M59.145 146.457l9.996 7.508" stroke-width="1.2" stroke="#00f" stroke-miterlimit="10" fill="none"/><path d="M69.14 153.965l9.993 7.508M67.25 122.81l-4.05 11.823" stroke-width="1.2" stroke="#000" stroke-miterlimit="10" fill="none"/><path d="M63.2 134.633l-4.055 11.824" stroke-width="1.2" stroke="#00f" stroke-miterlimit="10" fill="none"/><path d="M56.145 140.957h7v11h-7zm0 0" fill="#fff"/><use xlink:href="#a" x="56.145" y="149.62" fill="#00f"/><path d="M79.133 161.473l20.457-14.368M77.797 155.223l16.367-11.493M99.59 147.105l-7.344-23.894M99.59 147.105l23.648 8.106M92.246 123.21l12.844-21.448M88.484 118.043l10.274-17.156M67.25 122.81l24.996.4M105.09 101.762L92.937 79.918M92.938 79.918l-24.997-.402M90.344 85.758l-19.996-.32M67.94 79.516L55.1 100.96M55.098 100.96l12.152 21.85M61.453 100.29l9.723 17.476M123.238 155.21l2.403 12.267" stroke-width="1.2" stroke="#000" stroke-miterlimit="10" fill="none"/><path d="M125.64 167.477l2.403 12.265" stroke-width="1.2" stroke="#00f" stroke-miterlimit="10" fill="none"/><path d="M129.492 156.53l1.922 9.814" stroke-width="1.2" stroke="#000" stroke-miterlimit="10" fill="none"/><path d="M131.414 166.344l1.922 9.816" stroke-width="1.2" stroke="#00f" stroke-miterlimit="10" fill="none"/><path d="M142.082 138.78l-18.844 16.43" stroke-width="1.2" stroke="#000" stroke-miterlimit="10" fill="none"/><path d="M128.043 179.742l11.824 4.05" stroke-width="1.2" stroke="#00f" stroke-miterlimit="10" fill="none"/><path d="M139.867 183.793l11.824 4.055" stroke-width="1.2" stroke="#000" stroke-miterlimit="10" fill="none"/><path d="M125.043 174.242h7v11h-7zm0 0" fill="#fff"/><use xlink:href="#a" x="125.043" y="182.905" fill="#00f"/><path d="M151.69 187.848l4.806 24.53M157.945 189.168l3.844 19.63M170.535 171.418l-18.844 16.43M156.496 212.38l11.824 4.054" stroke-width="1.2" stroke="#000" stroke-miterlimit="10" fill="none"/><path d="M168.32 216.434l11.825 4.05M180.145 220.484l9.42-8.214" stroke-width="1.2" stroke="#00f" stroke-miterlimit="10" fill="none"/><path d="M189.566 212.27l9.422-8.215" stroke-width="1.2" stroke="#000" stroke-miterlimit="10" fill="none"/><path d="M178.164 214.406l7.54-6.57" stroke-width="1.2" stroke="#00f" stroke-miterlimit="10" fill="none"/><path d="M185.703 207.836l7.535-6.57" stroke-width="1.2" stroke="#000" stroke-miterlimit="10" fill="none"/><path d="M177.145 214.984h7v11h-7zm0 0" fill="#fff"/><use xlink:href="#a" x="177.145" y="223.647" fill="#00f"/><path d="M198.988 204.055l-2.402-12.266" stroke-width="1.2" stroke="#000" stroke-miterlimit="10" fill="none"/><path d="M196.586 191.79l-2.402-12.267M194.184 179.523l-11.825-4.05" stroke-width="1.2" stroke="#00f" stroke-miterlimit="10" fill="none"/><path d="M182.36 175.473l-11.825-4.055" stroke-width="1.2" stroke="#000" stroke-miterlimit="10" fill="none"/><path d="M189.91 184.277l-9.457-3.242" stroke-width="1.2" stroke="#00f" stroke-miterlimit="10" fill="none"/><path d="M180.453 181.035l-9.46-3.242" stroke-width="1.2" stroke="#000" stroke-miterlimit="10" fill="none"/><path d="M191.184 174.023h7v11h-7zm0 0" fill="#fff"/><use xlink:href="#a" x="191.184" y="182.687" fill="#00f"/><path d="M170.535 171.418l-2.402-12.266" stroke-width="1.2" stroke="#000" stroke-miterlimit="10" fill="none"/><path d="M168.133 159.152l-2.403-12.265M165.73 146.887l-11.824-4.05" stroke-width="1.2" stroke="#00f" stroke-miterlimit="10" fill="none"/><path d="M153.906 142.836l-11.824-4.055" stroke-width="1.2" stroke="#000" stroke-miterlimit="10" fill="none"/><path d="M165.73 146.887l9.422-8.215" stroke-width="1.2" stroke="#00f" stroke-miterlimit="10" fill="none"/><path d="M175.152 138.672l9.422-8.215" stroke-width="1.2" stroke="#000" stroke-miterlimit="10" fill="none"/><path d="M162.73 141.387h7v11h-7zm0 0" fill="#fff"/><use xlink:href="#a" x="162.73" y="150.05" fill="#00f"/><path d="M144.97 138.215l-2.407-12.266" stroke-width="1.2" stroke="#000" stroke-miterlimit="10" fill="none"/><path d="M142.563 125.95l-2.403-12.266" stroke-width="1.2" stroke="#f00" stroke-miterlimit="10" fill="none"/><path d="M139.195 139.348l-2.402-12.266" stroke-width="1.2" stroke="#000" stroke-miterlimit="10" fill="none"/><path d="M136.793 127.082l-2.402-12.266" stroke-width="1.2" stroke="#f00" stroke-miterlimit="10" fill="none"/><path d="M133.277 108.75h8v11h-8zm0 0" fill="#fff"/><use xlink:href="#b" x="133.277" y="117.413" fill="#f00"/><path d="M184.574 130.457l23.65 8.106M188.844 125.703l18.918 6.484M179.766 105.926l4.808 24.53M208.223 138.563l18.84-16.426M227.063 122.137l-4.805-24.535M220.813 120.813l-3.848-19.626M222.258 97.602l-23.65-8.102M222.258 97.602l9.422-8.215" stroke-width="1.2" stroke="#000" stroke-miterlimit="10" fill="none"/><path d="M231.68 89.387l9.422-8.21" stroke-width="1.2" stroke="#f00" stroke-miterlimit="10" fill="none"/><path d="M198.61 89.5l-18.844 16.426M200.59 95.574l-15.074 13.145" stroke-width="1.2" stroke="#000" stroke-miterlimit="10" fill="none"/><path d="M241.102 81.176l11.824 4.05" stroke-width="1.2" stroke="#f00" stroke-miterlimit="10" fill="none"/><path d="M252.926 85.227l11.824 4.05" stroke-width="1.2" stroke="#000" stroke-miterlimit="10" fill="none"/><path d="M237.102 75.676h8v11h-8zm0 0" fill="#fff"/><use xlink:href="#b" x="237.102" y="84.339" fill="#f00"/></g></svg>
